gkit/src/components/icons/assets/arrow_download_24_regular.svg

<svg width="24" height="24" viewBox="0 0 24 24" fill="none" xmlns="http://www.w3.org/2000/svg">
<path d="M18.2498 20.5009C18.664 20.5008 19 20.8365 19 21.2507C19 21.6649 18.6644 22.0008 18.2502 22.0009L5.25022 22.0047C4.836 22.0048 4.5 21.6691 4.5 21.2549C4.5 20.8407 4.83557 20.5048 5.24978 20.5047L18.2498 20.5009ZM11.6482 2.01271L11.75 2.00586C12.1297 2.00586 12.4435 2.28801 12.4932 2.65409L12.5 2.75586L12.499 16.4409L16.2208 12.7205C16.4871 12.4543 16.9038 12.4301 17.1974 12.648L17.2815 12.7206C17.5477 12.9869 17.5719 13.4036 17.354 13.6972L17.2814 13.7813L12.2837 18.7779C12.0176 19.044 11.6012 19.0683 11.3076 18.8507L11.2235 18.7782L6.22003 13.7816C5.92694 13.4889 5.92661 13.014 6.21931 12.7209C6.48539 12.4545 6.90204 12.43 7.1958 12.6477L7.27997 12.7202L10.999 16.4339L11 2.75586C11 2.37616 11.2822 2.06237 11.6482 2.01271L11.75 2.00586L11.6482 2.01271Z" fill="#212121"/>
</svg>

<svg xmlns="http://www.w3.org/2000/svg" width="24" height="24" preserveAspectRatio="xMidYMid meet" viewBox="0 0 24 24">
<path fill="currentColor" d="M18.25 20.5a.75.75 0 1 1 0 1.5l-13 .005a.75.75 0 1 1 0-1.5l13-.004ZM11.648 2.014l.102-.007a.75.75 0 0 1 .743.648l.007.102l-.001 13.685l3.722-3.72a.75.75 0 0 1 .976-.073l.085.073a.75.75 0 0 1 .072.976l-.073.084l-4.997 4.997a.75.75 0 0 1-.976.073l-.085-.073l-5.003-4.996a.75.75 0 0 1 .976-1.134l.084.072l3.719 3.714L11 2.756a.75.75 0 0 1 .648-.743l.102-.007l-.102.007Z"/>
</svg>
